src/assets/Queue.svg

<svg width="16" height="16" viewBox="0 0 16 16" fill="none" xmlns="http://www.w3.org/2000/svg">
<g clip-path="url(#clip0_2527_1612)">
<path fill-rule="evenodd" clip-rule="evenodd" d="M8.16659 1.89013C7.85965 1.83797 7.44123 1.83402 6.68645 1.83402C5.40866 1.83402 4.50042 1.83507 3.81182 1.92723C3.13723 2.01752 2.7496 2.18687 2.46785 2.46862C2.18571 2.75076 2.0166 3.13719 1.92642 3.80792C1.83431 4.49303 1.83325 5.39614 1.83325 6.66735V9.33402C1.83325 10.6052 1.83431 11.5083 1.92642 12.1935C2.0166 12.8642 2.18571 13.2506 2.46785 13.5327C2.74999 13.8149 3.13643 13.984 3.80715 14.0742C4.49226 14.1663 5.39537 14.1674 6.66659 14.1674H9.33325C10.6045 14.1674 11.5076 14.1663 12.1927 14.0742C12.8634 13.984 13.2498 13.8149 13.532 13.5327C13.8141 13.2506 13.9832 12.8642 14.0734 12.1935C14.1655 11.5083 14.1666 10.6052 14.1666 9.33402V9.04262C14.1666 8.01861 14.1594 7.53318 14.0507 7.16735H11.9641C11.2089 7.16737 10.5918 7.16738 10.1045 7.10187C9.59521 7.0334 9.15365 6.88521 8.80119 6.53275C8.44873 6.18029 8.30054 5.73873 8.23206 5.22943C8.16656 4.74219 8.16657 4.12503 8.16659 3.36981V1.89013ZM9.16659 2.40698V3.33402C9.16659 4.13383 9.16765 4.68338 9.22315 5.09618C9.27671 5.49459 9.3726 5.68995 9.50829 5.82564C9.64399 5.96134 9.83934 6.05723 10.2378 6.11079C10.6506 6.16629 11.2001 6.16735 11.9999 6.16735H13.3462C13.1486 5.97565 12.8954 5.74596 12.5666 5.45003L9.9274 3.07476C9.60381 2.78354 9.36298 2.56857 9.16659 2.40698ZM6.78356 0.834001C7.70662 0.833754 8.30299 0.833595 8.85187 1.04422C9.40074 1.25484 9.84203 1.65221 10.5248 2.26702C10.5483 2.28824 10.5722 2.30973 10.5964 2.33147L13.2355 4.70673C13.2636 4.73202 13.2914 4.75698 13.3188 4.78165C14.1079 5.49141 14.6182 5.95037 14.8927 6.56666C15.1671 7.18295 15.1669 7.86926 15.1666 8.9306C15.1666 8.96748 15.1666 9.00482 15.1666 9.04262V9.37162C15.1666 10.5968 15.1666 11.5672 15.0645 12.3267C14.9594 13.1083 14.738 13.7409 14.2391 14.2399C13.7402 14.7388 13.1075 14.9602 12.3259 15.0653C11.5665 15.1674 10.596 15.1674 9.37086 15.1674H6.62898C5.4038 15.1674 4.43338 15.1674 3.6739 15.0653C2.89229 14.9602 2.25966 14.7388 1.76075 14.2399C1.26184 13.7409 1.04043 13.1083 0.935342 12.3267C0.833233 11.5672 0.833242 10.5968 0.833252 9.37163V6.62974C0.833242 5.40457 0.833233 4.43415 0.935342 3.67467C1.04043 2.89305 1.26184 2.26042 1.76075 1.76151C2.26005 1.26221 2.8948 1.04105 3.67917 0.936068C4.4418 0.833999 5.41705 0.834008 6.64893 0.834018L6.68645 0.834018C6.71922 0.834018 6.75158 0.83401 6.78356 0.834001Z" fill="#1C274C"/>
<path fill-rule="evenodd" clip-rule="evenodd" d="M6.00856 8.63592C5.81623 8.45561 5.51694 8.45561 5.32461 8.63592L3.99128 9.88592C3.78983 10.0748 3.77962 10.3912 3.96848 10.5927C4.15735 10.7941 4.47377 10.8043 4.67522 10.6155L5.16659 10.1548L5.16659 12.334C5.16659 12.6102 5.39044 12.834 5.66659 12.834C5.94273 12.834 6.16659 12.6102 6.16659 12.334L6.16659 10.1548L6.65795 10.6155C6.8594 10.8043 7.17582 10.7941 7.36469 10.5927C7.55355 10.3912 7.54335 10.0748 7.34189 9.88592L6.00856 8.63592Z" fill="#1C274C"/>
</g>
<defs>
<clipPath id="clip0_2527_1612">
<rect width="16" height="16" fill="white"/>
</clipPath>
</defs>
</svg>

<svg id="Layer_1" data-name="Layer 1" xmlns="http://www.w3.org/2000/svg" viewBox="0 0 14.33 14.33"><defs><style>.cls-1{fill:#1573fe;fill-rule:evenodd;}</style></defs><title>Queuenew-blue</title><path class="cls-1" d="M8.17,1.89a10.27,10.27,0,0,0-1.48-.06,24.51,24.51,0,0,0-2.88.1,2.17,2.17,0,0,0-1.34.54,2.17,2.17,0,0,0-.54,1.34,22.13,22.13,0,0,0-.1,2.86V9.33a22.05,22.05,0,0,0,.1,2.86,2.17,2.17,0,0,0,.54,1.34,2.17,2.17,0,0,0,1.34.54,22.13,22.13,0,0,0,2.86.1H9.33a22.13,22.13,0,0,0,2.86-.1,2.17,2.17,0,0,0,1.34-.54,2.17,2.17,0,0,0,.54-1.34,22.05,22.05,0,0,0,.1-2.86V9a7.21,7.21,0,0,0-.12-1.87H12A14.34,14.34,0,0,1,10.1,7.1a2.12,2.12,0,0,1-1.3-.57,2.15,2.15,0,0,1-.57-1.3,16.63,16.63,0,0,1-.06-1.86Zm1,.52v.92A16.78,16.78,0,0,0,9.22,5.1a1.22,1.22,0,0,0,.29.73,1.17,1.17,0,0,0,.73.28A13.74,13.74,0,0,0,12,6.17h1.35l-.78-.72L9.93,3.07ZM6.78.83A5.79,5.79,0,0,1,8.85,1a5.63,5.63,0,0,1,1.67,1.23l.08.06,2.64,2.38.08.07a5.67,5.67,0,0,1,1.57,1.79,5.65,5.65,0,0,1,.28,2.36v.44a22.67,22.67,0,0,1-.11,3,3.1,3.1,0,0,1-.82,1.91,3.16,3.16,0,0,1-1.91.83,24.92,24.92,0,0,1-3,.1H6.63a24.92,24.92,0,0,1-3-.1,3.16,3.16,0,0,1-1.91-.83,3.1,3.1,0,0,1-.82-1.91,22.67,22.67,0,0,1-.11-3V6.63a22.67,22.67,0,0,1,.11-3,3.1,3.1,0,0,1,.82-1.91A3.1,3.1,0,0,1,3.68.94a22.83,22.83,0,0,1,3-.11h.13Z" transform="translate(-0.83 -0.83)"/><path class="cls-1" d="M6,8.64a.51.51,0,0,0-.69,0L4,9.89a.49.49,0,0,0,0,.7.51.51,0,0,0,.71,0l.49-.47v2.18a.5.5,0,0,0,.5.5.5.5,0,0,0,.5-.5V10.15l.49.47a.5.5,0,0,0,.7,0,.49.49,0,0,0,0-.7Z" transform="translate(-0.83 -0.83)"/></svg>
